img/closer-look.svg

<?xml version="1.0" encoding="UTF-8"?>
<svg width="40px" height="42px" viewBox="0 0 40 42" version="1.1" xmlns="http://www.w3.org/2000/svg" xmlns:xlink="http://www.w3.org/1999/xlink">
    <!-- Generator: Sketch 45 (43475) - http://www.bohemiancoding.com/sketch -->
    <title>Group 10</title>
    <desc>Created with Sketch.</desc>
    <defs></defs>
    <g id="Page-1" stroke="none" stroke-width="1" fill="none" fill-rule="evenodd">
        <g id="6-14-5" transform="translate(-794.000000, -1154.000000)" stroke="#071D49">
            <g id="Product-Snapshot" transform="translate(155.000000, 1057.000000)">
                <g id="Snapshot-8" transform="translate(570.000000, 98.000000)">
                    <g id="Group-10" transform="translate(70.000000, 0.000000)">
                        <g id="icon-closerlook">
                            <ellipse id="Oval-9" stroke-width="1.5" cx="17.4167734" cy="17.6290818" rx="17.0587696" ry="17.3101986"></ellipse>
                            <path d="M19.1033939,15.9424614 L25.7136164,15.9424614 L26.2136164,15.9424614 L26.2136164,19.3157023 L19.1033939,19.3157023 L19.1033939,26.4259248 L15.730153,26.4259248 L15.730153,19.3157023 L8.61993048,19.3157023 L8.61993048,15.9424614 L15.730153,15.9424614 L15.730153,8.83223889 L19.1033939,8.83223889 L19.1033939,15.9424614 Z" id="Combined-Shape"></path>
                            <path d="M29.3508001,31.1786423 L37.9194076,39.9105399" id="Path-4" stroke-width="2" stroke-linecap="round"></path>
                        </g>
                    </g>
                </g>
            </g>
        </g>
    </g>
</svg>

<svg width="40" height="42" xmlns="http://www.w3.org/2000/svg"><g transform="translate(1 1)" stroke="#071D49" fill="none" fill-rule="evenodd"><ellipse stroke-width="1.5" cx="17.417" cy="17.629" rx="17.059" ry="17.31"/><path d="M19.103 15.942h7.11v3.374h-7.11v7.11H15.73v-7.11H8.62v-3.374h7.11v-7.11h3.373v7.11z"/><path d="M29.35 31.179l8.57 8.732" stroke-width="2" stroke-linecap="round"/></g></svg>
